assets/img/logo.svg

<svg xmlns="http://www.w3.org/2000/svg" width="246" height="106" viewBox="0 0 246 106"><title>logo</title><g fill="none" fill-rule="evenodd"><path d="M242.08 17H215.73L201.3 84.795h-23.32L192.407 17h-84.974l3.545-17h134.574l-3.47 17z" fill="#D82331"/><path d="M159.338 50.977L162.808 34h-59.586l-3.545 17 59.66-.023" fill="#D82331"/><path d="M45.147 17.147h9.462c7.462 0 15.283.848 13.17 9.426C65.644 35.23 58.29 35.8 50.83 35.8H41.33l-3.937 16.284h9.146c9.076.024 11.717 5.785 11.717 14.772 0 6.155.168 11.64-.425 18.144h94.82l3.47-17H80.866c.038-1.028.07-2.4.085-3.714.073-6.014.208-18.472-12.002-20.223l.1-.47C81.69 41.26 88.244 36.84 92.514 22.12 95.065 5.494 80.89.136 64.475.394L48.93 0l-3.783 17.147zM4.253 85h5.402L28.088.02h-5.403L4.253 85z" fill="#D82331"/><path d="M7.947 98.385c-.096-.71-.172-1.404-.19-2.153h-.04c-.288.713-.634 1.498-1.037 2.31l-1.286 2.438H8.33l-.383-2.595zm1.018 7.366l-.327-2.402H4.243l-1.23 2.403H0l6.776-12.98h3.34l1.977 12.98H8.965zM22.01 98.385c-.097-.71-.174-1.404-.193-2.153h-.04c-.287.713-.632 1.498-1.035 2.31l-1.287 2.438h2.938l-.384-2.595zm1.016 7.366l-.326-2.402h-4.396l-1.23 2.403h-3.012l6.776-12.98h3.34l1.977 12.98h-3.13zM34.66 95.137c-.363 0-.728.02-.92.037l-.633 3.328c.172.02.403.04.73.04 1.44 0 2.963-.983 2.963-2.233 0-.752-1.006-1.173-2.14-1.173zm1.623 5.112c.21.425.46.94.69 1.442l1.843 4.06H35.4l-2.055-5.077h-.115l-.96 5.076h-2.917l2.456-12.98c1.093-.078 2.457-.095 3.896-.095 2.918 0 4.243 1.095 4.243 3.06 0 2.208-1.365 3.803-3.667 4.514zM48.653 95.213c-.615 0-.998 0-1.344.04l-1.516 7.94c.27.04.633.075.94.075 3.494 0 4.606-3.517 4.606-5.612 0-1.52-.65-2.443-2.687-2.443zm-2.342 10.635c-1.572 0-2.762-.06-3.914-.117l2.456-12.922c.998-.056 2.65-.116 4.184-.116 3.456 0 5.434 1.502 5.434 4.673 0 4.386-2.727 8.483-8.16 8.483zM59.816 105.75H56.9l2.456-12.98h2.918l-2.458 12.98M75.542 95.904c-.98-.402-2.19-.65-3.245-.65-3.168 0-4.972 2.592-4.972 5.343 0 1.424.75 2.652 2.822 2.652.5 0 .998-.057 1.44-.19l.805-4.234h2.937l-1.21 6.31c-1.343.537-3.012.826-4.49.826-3.86 0-5.47-2.038-5.47-4.942 0-4.75 3.415-8.442 8.406-8.442 1.324 0 2.668.174 3.84.502l-.864 2.824M95.554 95.253c-2.533 0-4.05 2.75-4.05 5.458 0 1.656.75 2.54 2.19 2.54 2.397 0 4.087-2.634 4.087-5.575 0-1.424-.69-2.422-2.226-2.422zM93.25 106c-3.36 0-4.895-1.845-4.895-4.77 0-4.653 3.323-8.71 7.68-8.71 3.204 0 4.855 1.752 4.855 4.81 0 5.018-3.455 8.67-7.64 8.67zM113.8 105.75h-3.435l-1.94-5.518c-.344-.982-.612-2-.825-2.867-.114 1-.248 1.867-.46 2.944l-1.016 5.44h-2.842l2.458-12.98h3.454l1.862 5.076c.384 1.08.69 2.193.94 3.194.117-1.04.307-2.29.52-3.33l.92-4.94h2.842l-2.478 12.98M124.733 95.213c-.615 0-.998 0-1.345.04l-1.516 7.94c.268.04.634.075.94.075 3.495 0 4.608-3.517 4.608-5.612 0-1.52-.652-2.443-2.687-2.443zm-2.343 10.635c-1.573 0-2.764-.06-3.916-.117l2.458-12.922c.998-.056 2.65-.116 4.185-.116 3.454 0 5.433 1.502 5.433 4.673 0 4.386-2.727 8.483-8.16 8.483zM150.073 95.137c-.364 0-.73.02-.92.037l-.635 3.328c.174.02.403.04.73.04 1.44 0 2.418-.983 2.418-2.233 0-.752-.46-1.173-1.593-1.173zm1.076 5.112c.21.425.46.94.69 1.442l1.842 4.06h-3.417l-2.054-5.077h-.113l-.96 5.076h-2.918l2.455-12.98c1.097-.078 2.458-.095 3.898-.095 2.917 0 4.24 1.095 4.24 3.06 0 2.208-1.36 3.803-3.664 4.514zM169.924 105.75h-3.57l-.344-6.115c-.038-.884 0-1.886.094-2.96h-.02c-.287 1-.612 1.943-1.017 2.863l-2.703 6.213h-3.362l-.67-12.98h2.993l.288 6.33c.037.845-.02 1.786-.096 2.727h.02c.305-.904.596-1.788.978-2.672l2.878-6.384h3.016l.48 6.268c.055.75.055 1.71-.02 2.694h.02c.324-1.002.65-1.885.996-2.73l2.61-6.23h3.053l-5.626 12.98M199.345 95.904c-.98-.402-2.188-.65-3.244-.65-3.167 0-4.972 2.592-4.972 5.343 0 1.424.75 2.652 2.824 2.652.5 0 .996-.057 1.44-.19l.804-4.234h2.936l-1.208 6.31c-1.343.537-3.012.826-4.492.826-3.86 0-5.47-2.038-5.47-4.942 0-4.75 3.416-8.442 8.407-8.442 1.323 0 2.667.174 3.837.502l-.862 2.824M185.516 95.352l-7.09.003.547-2.526h7.046M184.952 98.075h-7.093l-.55 2.526s3.376 0 5.063-.002h2.044M183.92 103.28h-7.17l-.55 2.525h7.186M141.93 95.536h-4.22l-.48 2.577h4.01l-.48 2.44h-3.99l-.558 2.865h4.222l-.48 2.574h-7.137l2.456-12.974h7.137l-.48 2.518" fill="#FFF"/></g></svg>

<svg xmlns="http://www.w3.org/2000/svg" width="246" height="106" viewBox="0 0 246 106">
  <g fill="none" fill-rule="evenodd">
    <polygon fill="#D82331" points="242.08 17 215.73 17 201.3 84.795 177.98 84.795 192.407 17 107.433 17 110.978 0 245.552 0 242.082 17"/>
    <polyline fill="#D82331" points="159.338 50.977 162.808 34 103.222 34 99.677 51 159.337 50.977"/>
    <path fill="#D82331" fill-rule="nonzero" d="M45.147,17.147 L54.609,17.147 C62.071,17.147 69.892,17.995 67.779,26.573 C65.644,35.23 58.29,35.8 50.83,35.8 L41.33,35.8 L37.393,52.084 L46.539,52.084 C55.615,52.108 58.256,57.869 58.256,66.856 C58.256,73.011 58.424,78.496 57.831,85 L152.651,85 L156.121,68 L80.866,68 C80.904,66.972 80.936,65.6 80.951,64.286 C81.024,58.272 81.159,45.814 68.949,44.063 L69.049,43.593 C81.69,41.26 88.244,36.84 92.514,22.12 C95.065,5.494 80.89,0.136 64.475,0.394 L48.93,0 L45.147,17.147 Z M4.253,85 L9.655,85 L28.088,0.02 L22.685,0.02 L4.253,85 Z"/>
    <path fill="#0E4372" fill-rule="nonzero" d="M7.947,98.385 C7.851,97.675 7.775,96.981 7.757,96.232 L7.717,96.232 C7.429,96.945 7.083,97.73 6.68,98.542 L5.394,100.98 L8.33,100.98 L7.947,98.385 Z M8.965,105.751 L8.638,103.349 L4.243,103.349 L3.013,105.752 L0,105.752 L6.776,92.772 L10.116,92.772 L12.093,105.752 L8.965,105.752 L8.965,105.751 Z M22.01,98.385 C21.913,97.675 21.836,96.981 21.817,96.232 L21.777,96.232 C21.49,96.945 21.145,97.73 20.742,98.542 L19.455,100.98 L22.393,100.98 L22.009,98.385 L22.01,98.385 Z M23.026,105.751 L22.7,103.349 L18.304,103.349 L17.074,105.752 L14.062,105.752 L20.838,92.772 L24.178,92.772 L26.155,105.752 L23.025,105.752 L23.026,105.751 Z M34.66,95.137 C34.297,95.137 33.932,95.157 33.74,95.174 L33.107,98.502 C33.279,98.522 33.51,98.542 33.837,98.542 C35.277,98.542 36.8,97.559 36.8,96.309 C36.8,95.557 35.794,95.136 34.66,95.136 L34.66,95.137 Z M36.283,100.249 C36.493,100.674 36.743,101.189 36.973,101.691 L38.816,105.751 L35.4,105.751 L33.345,100.674 L33.23,100.674 L32.27,105.75 L29.353,105.75 L31.809,92.77 C32.902,92.692 34.266,92.675 35.705,92.675 C38.623,92.675 39.948,93.77 39.948,95.735 C39.948,97.943 38.583,99.538 36.281,100.249 L36.283,100.249 Z M48.653,95.213 C48.038,95.213 47.655,95.213 47.309,95.253 L45.793,103.193 C46.063,103.233 46.426,103.268 46.733,103.268 C50.227,103.268 51.339,99.751 51.339,97.656 C51.339,96.136 50.689,95.213 48.652,95.213 L48.653,95.213 Z M46.311,105.848 C44.739,105.848 43.549,105.788 42.397,105.731 L44.853,92.809 C45.851,92.753 47.503,92.693 49.037,92.693 C52.493,92.693 54.471,94.195 54.471,97.366 C54.471,101.752 51.744,105.849 46.311,105.849 L46.311,105.848 Z M59.816,105.75 L56.9,105.75 L59.356,92.77 L62.274,92.77 L59.816,105.75 Z M75.542,95.904 C74.562,95.502 73.352,95.254 72.297,95.254 C69.129,95.254 67.325,97.846 67.325,100.597 C67.325,102.021 68.075,103.249 70.147,103.249 C70.647,103.249 71.145,103.192 71.587,103.059 L72.392,98.825 L75.329,98.825 L74.119,105.135 C72.776,105.672 71.107,105.961 69.629,105.961 C65.769,105.961 64.159,103.923 64.159,101.019 C64.159,96.269 67.574,92.577 72.565,92.577 C73.889,92.577 75.233,92.751 76.405,93.079 L75.541,95.903 L75.542,95.904 Z M95.554,95.253 C93.021,95.253 91.504,98.003 91.504,100.711 C91.504,102.367 92.254,103.251 93.694,103.251 C96.091,103.251 97.781,100.617 97.781,97.676 C97.781,96.252 97.091,95.254 95.555,95.254 L95.554,95.253 Z M93.25,106 C89.89,106 88.355,104.155 88.355,101.23 C88.355,96.577 91.678,92.52 96.035,92.52 C99.239,92.52 100.89,94.272 100.89,97.33 C100.89,102.348 97.435,106 93.25,106 Z M113.8,105.75 L110.365,105.75 L108.425,100.232 C108.081,99.25 107.813,98.232 107.6,97.365 C107.486,98.365 107.352,99.232 107.14,100.309 L106.124,105.749 L103.282,105.749 L105.74,92.769 L109.194,92.769 L111.056,97.845 C111.44,98.925 111.746,100.038 111.996,101.039 C112.113,99.999 112.303,98.749 112.516,97.709 L113.436,92.769 L116.278,92.769 L113.8,105.749 L113.8,105.75 Z M124.733,95.213 C124.118,95.213 123.735,95.213 123.388,95.253 L121.872,103.193 C122.14,103.233 122.506,103.268 122.812,103.268 C126.307,103.268 127.42,99.751 127.42,97.656 C127.42,96.136 126.768,95.213 124.733,95.213 Z M122.39,105.848 C120.817,105.848 119.626,105.788 118.474,105.731 L120.932,92.809 C121.93,92.753 123.582,92.693 125.117,92.693 C128.571,92.693 130.55,94.195 130.55,97.366 C130.55,101.752 127.823,105.849 122.39,105.849 L122.39,105.848 Z M150.073,95.137 C149.709,95.137 149.343,95.157 149.153,95.174 L148.518,98.502 C148.692,98.522 148.921,98.542 149.248,98.542 C150.688,98.542 151.666,97.559 151.666,96.309 C151.666,95.557 151.206,95.136 150.073,95.136 L150.073,95.137 Z M151.149,100.249 C151.359,100.674 151.609,101.189 151.839,101.691 L153.681,105.751 L150.264,105.751 L148.21,100.674 L148.097,100.674 L147.137,105.75 L144.219,105.75 L146.674,92.77 C147.771,92.692 149.132,92.675 150.572,92.675 C153.489,92.675 154.812,93.77 154.812,95.735 C154.812,97.943 153.452,99.538 151.148,100.249 L151.149,100.249 Z M169.924,105.75 L166.354,105.75 L166.01,99.635 C165.972,98.751 166.01,97.749 166.104,96.675 L166.084,96.675 C165.797,97.675 165.472,98.618 165.067,99.538 L162.364,105.751 L159.002,105.751 L158.332,92.771 L161.325,92.771 L161.613,99.101 C161.65,99.946 161.593,100.887 161.517,101.828 L161.537,101.828 C161.842,100.924 162.133,100.04 162.515,99.156 L165.393,92.772 L168.409,92.772 L168.889,99.04 C168.944,99.79 168.944,100.75 168.869,101.734 L168.889,101.734 C169.213,100.732 169.539,99.849 169.885,99.004 L172.495,92.774 L175.548,92.774 L169.922,105.754 L169.924,105.75 Z M199.345,95.904 C198.365,95.502 197.157,95.254 196.101,95.254 C192.934,95.254 191.129,97.846 191.129,100.597 C191.129,102.021 191.879,103.249 193.953,103.249 C194.453,103.249 194.949,103.192 195.393,103.059 L196.197,98.825 L199.133,98.825 L197.925,105.135 C196.582,105.672 194.913,105.961 193.433,105.961 C189.573,105.961 187.963,103.923 187.963,101.019 C187.963,96.269 191.379,92.577 196.37,92.577 C197.693,92.577 199.037,92.751 200.207,93.079 L199.345,95.903 L199.345,95.904 Z M141.93,95.536 L137.71,95.536 L137.23,98.113 L141.24,98.113 L140.76,100.553 L136.77,100.553 L136.212,103.418 L140.434,103.418 L139.954,105.992 L132.817,105.992 L135.273,93.018 L142.41,93.018 L141.93,95.536 Z"/>
    <polygon fill="#D82331" fill-rule="nonzero" points="185.516 95.352 178.426 95.355 178.973 92.829 186.019 92.829"/>
    <path fill="#D82331" fill-rule="nonzero" d="M184.952,98.075 L177.859,98.075 L177.309,100.601 C177.309,100.601 180.685,100.601 182.372,100.599 L184.416,100.599 L184.952,98.075 Z"/>
    <polygon fill="#D82331" fill-rule="nonzero" points="184.92 103.28 177.75 103.28 177.2 105.805 184.386 105.805"/>
  </g>
</svg>
